priv/static/svgs/icons_new/text-numbers-list.svg

<svg width="32" height="32" viewBox="0 0 32 32" fill="none" xmlns="http://www.w3.org/2000/svg">
<path d="M11.6154 22.12H25.5M11.6154 15.64H25.5M11.6154 9.16003H25.5M7.96157 10.6V7L6.50003 8.08M8.69231 17.8H6.5C6.5 16.72 8.69231 15.28 8.69231 14.56C8.69231 13.84 8.20154 13.48 7.59615 13.48C6.99076 13.48 6.5 13.9635 6.5 14.56M6.5 20.6799H8.69231C8.69231 21.4772 7.59615 22.4799 7.59615 22.4799C8.17504 23.1053 8.69231 23.5383 8.69231 23.9199C8.69231 24.6399 8.20154 24.9999 7.59615 24.9999C6.99076 24.9999 6.5 24.5164 6.5 23.9199" stroke="black" stroke-linecap="round" stroke-linejoin="round"/>
</svg>

<svg width="32" height="32" viewBox="0 0 32 32" fill="none" xmlns="http://www.w3.org/2000/svg">
  <symbol id="item" viewBox="0 0 32 32" stroke-width="1" fill="none">
    <path d="M11.615 22.12H25.5m-13.885-6.48H25.5M11.615 9.16H25.5M7.962 10.6V7L6.5 8.08m2.192 9.72H6.5c0-1.08 2.192-2.52 2.192-3.24 0-.72-.49-1.08-1.096-1.08-.605 0-1.096.483-1.096 1.08m0 6.12h2.192c0 .797-1.096 1.8-1.096 1.8.579.625 1.096 1.058 1.096 1.44 0 .72-.49 1.08-1.096 1.08A1.088 1.088 0 0 1 6.5 23.92" stroke="currentColor" stroke-linecap="round" stroke-linejoin="round"/>
  </symbol>
</svg>
